X: 8
T: Jolly Old Saint Nicholas
M: 4/4
K: D
L: 1/4
V: 1 name="Vla I" snm="" clef=alto middle=c
%%MIDI channel 1
%%MIDI program 40
"D" vf f f f | "A" e e e2 | "Bm" ud d d d | "F#m" uf3 z |
w: Jol-ly old Saint Nich-o-las, Lean your ear this way!
"G" vB B B B | "D" (A d) d2 | "E7" (c d) e f | "A" ue4 |
w: Don't you tell a sin-gle soul what I'm going to say;
"D" vf f f f | "A" e e e2 | "Bm" ud d d d | "F#m" uf3 z |
w: Christ-mas Eve is com-ing soon,  Now you dear old man,
"G" vB B B B | "D" A d d2 | "A7" (ue d) e f | "D" D3 z |]
w: Whis-per what you'll bring to me,  Tell me if you can.
V: 2 name="Vla" snm="" clef=alto middle=c
% V: 2 name="Vln II" snm="" clef=treble
L: 1/4
%%MIDI channel 1
%%MIDI program 40
vd d A d | (c/B/) c c (A/G/) | F F2 G | uA F G A |
uG G G (A/G/) | F F F2 | uE F ^G (F/G/) | A A G G |
A A A d | (c/B/) c c (A/G/) | F F A B | =c A B c |
B A G G | F F F2 | (uG F) G A | F3 z |]

Angels (Mel Bay,  p 6):  scan/copy or type
Ding:  Use Mel Bay's viola harmony (can scan/copy)
Good King: from Mel Bay,  p 7,  harmony,  can scan/copy
Here We Come:  scan/copy,  Xmas kaleido
Holly & Ivy:  scan/copy,  in D,  Ed Huws-Jones,  p 9
Jingle Bells:  scan/copy viola,  Strings Extra,  p 14
Viola duet (while shepherds watched):  Mel Bay,  scan & copy

Chanukah : harmony part:  enter in treble,  cvt to viola
   note 'loco' shift down octave at 8vb,  then back up
Deck: xpose from G to D,  show to Kate
G_d: Em to Bm,  otherwise 'as is'
Jolly Old:  in D,  use Will Schmid,  harmony,  p 15,  type & drop octave
Still,  still,  still : p 30,  Will Schmid,  loco,  just shift to viola


